public/favicon.svg

<svg width="36" height="36" viewBox="0 0 36 36" fill="none" xmlns="http://www.w3.org/2000/svg">
<path d="M33.1172 18C33.1189 19.9857 32.7291 21.9523 31.97 23.7872C31.2109 25.622 30.0974 27.2892 28.6933 28.6933C27.2892 30.0975 25.622 31.2109 23.7872 31.97C21.9523 32.7291 19.9857 33.1189 18 33.1172C17.0336 33.1175 16.0694 33.0258 15.1204 32.8433C11.6737 32.1764 8.56683 30.33 6.33362 27.6212C4.10041 24.9125 2.88026 21.5106 2.88282 18C2.88264 16.0147 3.27354 14.0489 4.03318 12.2147C4.79283 10.3805 5.90635 8.71394 7.31014 7.31015C8.71394 5.90635 10.3805 4.79284 12.2147 4.03319C14.0489 3.27354 16.0147 2.88264 18 2.88282C20.0259 2.88081 22.0314 3.28704 23.8968 4.07727C25.7622 4.86749 27.4493 6.02551 28.8572 7.48216C29.1812 7.81598 29.4893 8.1644 29.7815 8.52744C29.8753 8.64406 29.9673 8.76128 30.0574 8.88098C32.0449 11.5054 33.1194 14.7079 33.1172 18Z" fill="#5897D1"/>
<path d="M29.479 14.3618C29.4803 15.8696 29.1843 17.3629 28.6079 18.7562C28.0315 20.1495 27.186 21.4155 26.1198 22.4816C25.0536 23.5478 23.7877 24.3933 22.3944 24.9697C21.0011 25.5461 19.5078 25.8421 18 25.8408C17.2662 25.8411 16.534 25.7714 15.8134 25.6328C13.6763 25.2184 11.7011 24.2048 10.1181 22.7104C8.53522 21.2159 7.40983 19.3022 6.87324 17.1925C6.33666 15.0827 6.41101 12.8639 7.08761 10.7948C7.76421 8.72566 9.01517 6.89157 10.6946 5.50645C12.374 4.12132 14.4126 3.24225 16.5727 2.97177C18.7327 2.7013 20.9252 3.05056 22.8943 3.97884C24.8634 4.90711 26.5279 6.37611 27.6938 8.21451C28.8597 10.0529 29.4788 12.1849 29.479 14.3618Z" fill="#9FC5E6"/>
<path d="M29.4509 4.43652V7.57597C29.4509 7.77332 29.3725 7.96258 29.2329 8.10213C29.0934 8.24168 28.9041 8.32007 28.7068 8.32008H23.4639V3.69235H28.7068C28.9041 3.69237 29.0934 3.77078 29.2329 3.91034C29.3725 4.0499 29.4509 4.23916 29.4509 4.43652Z" fill="#FF668C"/>
<path d="M23.1855 32.204C19.6071 33.5068 15.6691 33.4127 12.1569 31.9406C8.64475 30.4685 5.81661 27.7265 4.23657 24.2616L8.99447 17.9333C9.19618 17.665 9.45752 17.4473 9.75785 17.2974C10.0582 17.1474 10.3892 17.0694 10.7249 17.0694C11.0606 17.0694 11.3917 17.1474 11.692 17.2974C11.9923 17.4473 12.2537 17.665 12.4554 17.9333L15.1647 21.5374L23.1855 32.204Z" fill="#343A6E"/>
<path d="M28.7362 5.42805C28.7362 5.50398 28.7212 5.57916 28.6922 5.64931C28.6631 5.71946 28.6205 5.7832 28.5668 5.83689C28.5131 5.89057 28.4494 5.93316 28.3792 5.96222C28.3091 5.99128 28.2339 6.00623 28.158 6.00623H26.1471C25.9937 6.00623 25.8466 6.06718 25.7381 6.17566C25.6296 6.28414 25.5686 6.43128 25.5686 6.5847C25.5686 6.73812 25.6296 6.88525 25.7381 6.99374C25.8466 7.10222 25.9937 7.16317 26.1471 7.16317H26.8413C26.9947 7.16317 27.1418 7.22411 27.2503 7.3326C27.3588 7.44108 27.4197 7.58822 27.4197 7.74164C27.4197 7.89505 27.3588 8.04219 27.2503 8.15067C27.1418 8.25916 26.9947 8.3201 26.8413 8.3201H23.4636V3.69235H26.7592C26.8351 3.69236 26.9104 3.70734 26.9806 3.73644C27.0507 3.76553 27.1145 3.80817 27.1682 3.86192C27.2219 3.91567 27.2645 3.97948 27.2935 4.04969C27.3225 4.1199 27.3374 4.19514 27.3373 4.27112C27.3374 4.34709 27.3523 4.42231 27.3814 4.49249C27.4105 4.56267 27.4532 4.62643 27.5069 4.68012C27.5607 4.73381 27.6245 4.77639 27.6947 4.80542C27.7649 4.83444 27.8401 4.84935 27.9161 4.84929H28.158C28.3114 4.84942 28.4585 4.91046 28.5669 5.01898C28.6753 5.12751 28.7362 5.27465 28.7362 5.42805Z" fill="#EF487D"/>
<path d="M23.1094 2.88287C23.0425 2.88287 22.9763 2.89604 22.9146 2.92162C22.8528 2.9472 22.7967 2.9847 22.7494 3.03197C22.7021 3.07924 22.6646 3.13536 22.6391 3.19713C22.6135 3.25889 22.6003 3.32509 22.6003 3.39194V16.1868H23.6184V3.39188C23.6184 3.25688 23.5647 3.12742 23.4693 3.03197C23.3738 2.93651 23.2444 2.88288 23.1094 2.88287Z" fill="#F9DF73"/>
<path d="M31.9472 23.8396C31.8127 24.1598 31.6677 24.4745 31.5122 24.7836C30.0299 27.7284 27.627 30.1089 24.6684 31.5636C21.7099 33.0182 18.3574 33.4675 15.1203 32.8433C13.0439 32.4417 11.0754 31.6073 9.34302 30.3943L21.04 14.8371C21.2811 14.5162 21.5936 14.2558 21.9528 14.0765C22.3119 13.8971 22.7078 13.8038 23.1092 13.8038C23.5106 13.8038 23.9065 13.8971 24.2656 14.0765C24.6248 14.2558 24.9372 14.5162 25.1784 14.8371L31.9472 23.8396Z" fill="#484B7F"/>
<path d="M23.1095 13.8036C22.7128 13.8036 22.316 14.1479 22.0507 14.8371L15.1203 32.8432C13.0437 32.4424 11.075 31.6079 9.34302 30.3943L21.0407 14.8371C21.2809 14.5153 21.5931 14.2542 21.9524 14.0747C22.3116 13.8952 22.7079 13.8023 23.1095 13.8036Z" fill="#343A6E"/>
<path d="M31.5122 24.7836C30.0299 27.7284 27.627 30.1089 24.6685 31.5635C21.7099 33.0182 18.3575 33.4675 15.1203 32.8432C13.6621 32.562 12.2537 32.0659 10.9412 31.371L18.6201 23.7514C17.4243 26.8581 20.813 27.6634 24.3301 26.3676C27.5571 25.1785 27.9008 23.9111 31.5122 24.7836Z" fill="#343A6E"/>
<path d="M15.1648 21.5374C13.3631 21.5997 11.5854 22.6654 10.4477 22.6654C8.68913 22.6654 6.60975 21.1055 8.9946 17.9334C9.19631 17.6651 9.45765 17.4474 9.75798 17.2974C10.0583 17.1475 10.3894 17.0694 10.725 17.0694C11.0607 17.0694 11.3918 17.1475 11.6921 17.2974C11.9924 17.4474 12.2538 17.6651 12.4555 17.9334L15.1648 21.5374Z" fill="#484B7F"/>
</svg>

<svg xmlns="http://www.w3.org/2000/svg" width="36" height="36" fill="none"><path fill="#5897D1" d="M33.12 18a15.1 15.1 0 1 1-30.24 0 15.12 15.12 0 1 1 30.24 0Z"/><path fill="#9FC5E6" d="M29.48 14.36a11.47 11.47 0 1 1-22.94.02 11.47 11.47 0 0 1 22.94-.02Z"/><path fill="#FF668C" d="M29.45 4.44v3.14a.74.74 0 0 1-.74.74h-5.25V3.69h5.25a.74.74 0 0 1 .74.75Z"/><path fill="#343A6E" d="M23.19 32.2a15.14 15.14 0 0 1-18.95-7.94l4.75-6.33a2.16 2.16 0 0 1 3.47 0l2.7 3.6L23.2 32.2Z"/><path fill="#EF487D" d="M28.74 5.43a.58.58 0 0 1-.58.58h-2.01a.58.58 0 0 0 0 1.15h.7a.58.58 0 0 1 0 1.16h-3.39V3.69h3.3a.58.58 0 0 1 .58.58.58.58 0 0 0 .58.58h.24a.58.58 0 0 1 .58.58Z"/><path fill="#F9DF73" d="M23.1 2.88a.5.5 0 0 0-.5.51v12.8h1.02V3.39a.5.5 0 0 0-.51-.5Z"/><path fill="#484B7F" d="M31.95 23.84a15.19 15.19 0 0 1-7.28 7.72A15.14 15.14 0 0 1 9.34 30.4l11.7-15.55a2.59 2.59 0 0 1 4.14 0l6.77 9Z"/><path fill="#343A6E" d="M23.1 13.8c-.39 0-.78.35-1.05 1.04l-6.93 18a15.03 15.03 0 0 1-5.78-2.45l11.7-15.55a2.57 2.57 0 0 1 2.07-1.04Z"/><path fill="#343A6E" d="M31.51 24.78a15.14 15.14 0 0 1-20.57 6.6l7.68-7.63c-1.2 3.1 2.2 3.91 5.71 2.62 3.23-1.2 3.57-2.46 7.18-1.59Z"/><path fill="#484B7F" d="M15.16 21.54c-1.8.06-3.57 1.13-4.71 1.13-1.76 0-3.84-1.56-1.46-4.74a2.17 2.17 0 0 1 3.47 0l2.7 3.6Z"/></svg>
